devices/symbolic/drive-removable-media-symbolic.svg

<svg xmlns="http://www.w3.org/2000/svg" viewBox="0 0 16 16">
  <defs id="defs3051">
    <style type="text/css" id="current-color-scheme">
      .ColorScheme-Text {
        color:#4d4d4d;
      }
      </style>
  </defs>
 <path 
     style="fill:#bebebe;fill-opacity:1;stroke:none" 
     class="ColorScheme-Text"
     d="M 3 1.0351562 C 3 1.0351562 1 1.0351562 1 3.0351562 L 1 13.035156 C 1 13.035156 1 15.035156 3 15.035156 L 13 15.035156 C 13 15.035156 15 15.035156 15 13.035156 L 15 3.0351562 C 15 1.0351562 13 1.0351562 13 1.0351562 L 3 1.0351562 z M 8 4.5351562 L 11 8.0351562 L 5 8.0351562 L 8 4.5351562 z M 5 9.0351562 L 11 9.0351562 L 11 11.035156 L 5 11.035156 L 5 9.0351562 z "
     />
</svg>

<svg xmlns="http://www.w3.org/2000/svg" viewBox="0 0 16 16">
  <path fill="#bebebe" d="M3 1.035s-2 0-2 2v10s0 2 2 2h10s2 0 2-2v-10c0-2-2-2-2-2H3zm5 3.5l3 3.5H5l3-3.5zm-3 4.5h6v2H5v-2z"/>
</svg>
